X:1
T:Godfather waltz
T:Godfather waltz 
T:piano
T:Nino Rota
C:Nino Rota
%%score { 1 2 }
L:1/8
Q:1/4=100
M:3/4
K:F
V:1 treble nm="Piano" snm="Pno."
V:2 treble nm="Piano" snm="Pno."
V:1
"^Adagio""^Intro" d4 ^cd | _e4 d2 | dB- B4- | B6 | d4 ^cd | _e4 d2 | dA- A4- | A6 | d4 ^cd | %9
 f4 d2 | ^c4 e2 | d6 | B2 A2 B2 | d4 ^c2 | A6- | A6 |"^Andante"[Q:1/4=120]"^A" d4 ^cd | _e4 d2 | %18
 dB- B4- | B6 | d4 ^cd | _e4 d2 | dA- A4- | A6 | d4 ^cd | f4 d2 | ^c4 e2 | d6 | B2 A2 B2 | d4 ^c2 | %30
 A6- | A6 | A6- | A2 =B^c de | f6- | f6 | f4 ed | ^c4 e2 | d6- | d6 |"^B"{/_e} d2 ^c2 d2 | %41
{/_e} d2 ^c2 d2 |{/_e} d2 ^c2 d2 | _e2 d2 c2 | B2 A2 G2 | ^F4 G2 | A6- | A6 |{/_e} d2 ^c2 d2 | %49
{/_e} d2 ^c2 d2 |{/_e} d2 ^c2 d2 | f2 e2 d2 | c2 =B2 A2 | ^G4 A2 | A6- | A4 z2 |"^A" d4 ^cd | %57
 _e4 d2 | dB- B4- | B6 | d4 ^cd | _e4 d2 | dA- A4- | A6 | d4 ^cd | f4 d2 | ^c4 e2 | d6 | B2 A2 B2 | %69
 d4 ^c2 | A6- | A6 | A6- | A2 =B^c de | f6- | f6 | f4 ed | ^c4 e2 | d6- | d6 |"^Coda" A6- | %81
 A2 =B^c de | f6- | f6 | f4 ed | ^c4 e2 | d6- | d6 |] %88
V:2
 z6 | z6 | z6 | z6 | z6 | z6 | z6 | z6 | z6 | z6 | z6 | z6 | z6 | z6 | z6 | z6 | %16
"CRem" D2 [DFA]2 [DFA]2 |"CRem" D2 [DFA]2 [DFA]2 |"CSolm" G,2 [G,B,D]2 [G,B,D]2 | %19
"CSolm" G,2 [G,B,D]2 [G,B,D]2 |"CSolm" G,2 [G,B,D]2 [G,B,D]2 |"CSolm" G,2 [G,B,D]2 [G,B,D]2 | %22
"CRem" D2 [DFA]2 [DFA]2 |"CRem" D2 [DFA]2 [DFA]2 |"CRem" D2 [DFA]2 [DFA]2 | %25
"CRem" D2 [DFA]2 [DFA]2 |"CLa7" A,2 [A,^CEG]2 [A,CEG]2 |"CRem" D2 [DFA]2 [DFA]2 | %28
"CSolm" G,2 [G,B,D]2 [G,B,D]2 |"CSolm" G,2 [G,B,D]2 [G,B,D]2 |"CRem" D2 [DFA]2 [DFA]2 | %31
"CRem" D2 [DFA]2 [DFA]2 |"CLa7" A,2 [A,^CEG]2 [A,CEG]2 |"CLa7" A,2 [A,^CEG]2 [A,CEG]2 | %34
"CRem" D2 [DFA]2 [DFA]2 |"CSibM" B,2 [B,DF]2 [B,DF]2 |"CSolm" G,2 [G,B,D]2 [G,B,D]2 | %37
"CLa7" A,2 [A,^CEG]2 [A,CEG]2 |"CRem" D2 [DFA]2 [DFA]2 | D6 |"CSolm" G,2 [G,B,D]2 [G,B,D]2 | %41
"CSolm" G,2 [G,B,D]2 [G,B,D]2 |"CRem" D2 [DFA]2 [DFA]2 |"CRem" D2 [DFA]2 [DFA]2 | %44
"CSolm" G,2 [G,B,D]2 [G,B,D]2 |"CSolm" G,2 [G,B,D]2 [G,B,D]2 |"CReM" D2 [D^FA]2 [DFA]2 | %47
"CRe" D2"CM" [D^FA]2 [DFA]2 |"CSolm" G,2 [G,B,D]2 [G,B,D]2 |"CSolm" G,2 [G,B,D]2 [G,B,D]2 | %50
"CRem" D2 [DFA]2 [DFA]2 |"CRem" D2 [DFA]2 [DFA]2 |"CMiM" E2 E2 E2 |"CMiM" E4 E2 | %54
"CLam" A,2 [A,CE]2 [A,CE]2 |"CLa7" A,2 [A,^CEG]2 [A,CEG]2 |"CRem" D2 [DFA]2 [DFA]2 | %57
"CRem" D2 [DFA]2 [DFA]2 |"CSolm" G,2 [G,B,D]2 [G,B,D]2 |"CSolm" G,2 [G,B,D]2 [G,B,D]2 | %60
"CSolm" G,2 [G,B,D]2 [G,B,D]2 |"CSolm" G,2 [G,B,D]2 [G,B,D]2 |"CRem" D2 [DFA]2 [DFA]2 | %63
"CRem" D2 [DFA]2 [DFA]2 |"CRem" D2 [DFA]2 [DFA]2 |"CRem" D2 [DFA]2 [DFA]2 | %66
"CLa7" A,2 [A,^CEG]2 [A,CEG]2 |"CRem" D2 [DFA]2 [DFA]2 |"CSolm" G,2 [G,B,D]2 [G,B,D]2 | %69
"CSolm" G,2 [G,B,D]2 [G,B,D]2 |"CRem" D2 [DFA]2 [DFA]2 |"CRem" D2 [DFA]2 [DFA]2 | %72
"CLa7" A,2 [A,^CEG]2 [A,CEG]2 |"CLa7" A,2 [A,^CEG]2 [A,CEG]2 |"CRem" D2 [DFA]2 [DFA]2 | %75
"CSibM" B,2 [B,DF]2 [B,DF]2 |"CSolm" G,2 [G,B,D]2 [G,B,D]2 |"CLa7" A,2 [A,^CEG]2 [A,CEG]2 | %78
"CRem" D2 [DFA]2 [DFA]2 | D6 | z6 | z6 | z6 | z6 | z6 | z6 | z6 | z6 |] %88

